src/pos-icons/cellphone-wireless.svg

<svg height="24" viewBox="0 0 24 24" width="24" xmlns="http://www.w3.org/2000/svg"><path d="m20.07 4.93c1.81 1.81 2.93 4.31 2.93 7.07s-1.12 5.26-2.93 7.07l-1.41-1.41c1.45-1.44 2.34-3.44 2.34-5.66 0-2.21-.89-4.22-2.34-5.66zm-2.83 2.83c1.09 1.09 1.76 2.59 1.76 4.24s-.67 3.15-1.76 4.24l-1.41-1.41c.72-.72 1.17-1.72 1.17-2.83s-.45-2.11-1.17-2.83zm-4.24 2.24a2 2 0 0 1 2 2 2 2 0 0 1 -2 2 2 2 0 0 1 -2-2 2 2 0 0 1 2-2m-1.5-9a2.5 2.5 0 0 1 2.5 2.5v4.5h-2v-4h-9v15h9v-3h2v4.5a2.5 2.5 0 0 1 -2.5 2.5h-8a2.5 2.5 0 0 1 -2.5-2.5v-17a2.5 2.5 0 0 1 2.5-2.5z"/></svg>

<?xml version="1.0" encoding="UTF-8"?><!DOCTYPE svg PUBLIC "-//W3C//DTD SVG 1.1//EN" "http://www.w3.org/Graphics/SVG/1.1/DTD/svg11.dtd"><svg xmlns="http://www.w3.org/2000/svg" xmlns:xlink="http://www.w3.org/1999/xlink" version="1.1" id="mdi-cellphone-wireless" width="24" height="24" viewBox="0 0 24 24"><path d="M20.07,4.93C21.88,6.74 23,9.24 23,12C23,14.76 21.88,17.26 20.07,19.07L18.66,17.66C20.11,16.22 21,14.22 21,12C21,9.79 20.11,7.78 18.66,6.34L20.07,4.93M17.24,7.76C18.33,8.85 19,10.35 19,12C19,13.65 18.33,15.15 17.24,16.24L15.83,14.83C16.55,14.11 17,13.11 17,12C17,10.89 16.55,9.89 15.83,9.17L17.24,7.76M13,10A2,2 0 0,1 15,12A2,2 0 0,1 13,14A2,2 0 0,1 11,12A2,2 0 0,1 13,10M11.5,1A2.5,2.5 0 0,1 14,3.5V8H12V4H3V19H12V16H14V20.5A2.5,2.5 0 0,1 11.5,23H3.5A2.5,2.5 0 0,1 1,20.5V3.5A2.5,2.5 0 0,1 3.5,1H11.5Z" /></svg>
